svg/300/outlined/menstrual_health-fill.svg

<svg xmlns="http://www.w3.org/2000/svg" width="48" height="48" viewBox="0 -960 960 960"><path d="M100.001-819.997V-480q0 105.846 52.347 192.5t137.424 135.269q-42.385-38.538-67.424-92Q197.31-297.692 197.31-360q0-58.153 30.653-135.345 30.654-77.192 85.192-164.576L100.001-819.997ZM480-818.383Q374.462-691.384 308.578-571.307 242.693-451.23 242.693-360q0 98.615 69.346 167.961Q381.385-122.693 480-122.693q98.615 0 167.961-69.346Q717.307-261.385 717.307-360q0-91.23-66.385-211.807Q584.538-692.384 480-818.383Zm379.999-1.614L646.845-659.921q54.154 87.384 84.999 164.576Q762.69-418.153 762.69-360q0 62.308-25.038 115.769-25.039 53.462-67.424 92 85.077-48.615 137.424-135.269 52.347-86.654 52.347-192.5v-339.997Z"/></svg>

<svg xmlns="http://www.w3.org/2000/svg" width="48" height="48" viewBox="0 -960 960 960"><path d="M100-820v340q0 105.85 52.35 192.5 52.34 86.65 137.42 135.27-42.38-38.54-67.42-92T197.31-360q0-58.15 30.65-135.34 30.66-77.2 85.19-164.58L100-820Zm380 1.62q-105.54 127-171.42 247.07Q242.69-451.23 242.69-360q0 98.61 69.35 167.96 69.35 69.35 167.96 69.35 98.61 0 167.96-69.35 69.35-69.35 69.35-167.96 0-91.23-66.39-211.81Q584.54-692.38 480-818.38ZM860-820 646.85-659.92q54.15 87.38 84.99 164.58 30.85 77.19 30.85 135.34 0 62.31-25.04 115.77-25.04 53.46-67.42 92 85.08-48.62 137.42-135.27Q860-374.15 860-480v-340Z"/></svg>
